X: 34776
T: Road To Ringussoon, The
R: jig
M: 6/8
K: Bminor
baf efe|dfd edB|baf efe|dfd efa|
baf efe|dfd edB|Bfd edc|B3B 2b|
baf efe|dfd edB|baf efe|dfd efa|
baf gfe|fed edB|gfe fdB|c2B B^A=A||
|:FBB cde|dB/c/d f2d|Bdf a2^g/a/|^gee ef=g|
fdB Bdf|ecA ABc|dcB cfe|1 c2B B2A:|2 c2B B2b||

